app/images/icon/logo-symbol.svg

<svg width="37" height="40" viewBox="0 0 37 40" fill="none" xmlns="http://www.w3.org/2000/svg">
<path opacity="0.2" d="M36.4321 39.3778C36.4321 39.0367 28.7826 38.7557 19.3576 38.7557C9.93273 38.7557 2.2832 39.0367 2.2832 39.3778C2.2832 39.7189 9.93273 39.9999 19.3576 39.9999C28.8045 39.9999 36.4321 39.7189 36.4321 39.3778Z" fill="#5D5D5D"/>
<path d="M19.599 7.87305C27.0293 7.87305 33.0569 13.3914 33.0569 20.194V32.515H19.599C12.1687 32.515 6.14111 26.9967 6.14111 20.194V7.87305H19.599Z" fill="white"/>
<path opacity="0.3" d="M31.1281 13.8528C30.0103 15.0367 29.3308 16.5819 29.3308 18.2675C29.3308 20.7759 30.8212 22.9631 33.0349 24.1471V20.1939C33.0349 17.8862 32.3555 15.719 31.1281 13.8528Z" fill="white"/>
<path d="M25.8456 9.29773C23.7414 10.4014 22.3386 12.4683 22.3386 14.8562C22.3386 18.388 25.473 21.2575 29.3306 21.2575C30.6895 21.2575 31.9608 20.8963 33.0348 20.2743V20.194C33.0348 15.4582 30.1196 11.3445 25.8456 9.29773Z" fill="white"/>
<path opacity="0.5" d="M15.2811 10.2603C11.818 10.2603 8.6398 11.364 6.14111 13.2302V20.2135C6.14111 27.0161 12.1687 32.5345 19.599 32.5345H26.043C28.3882 30.1666 29.8129 27.0362 29.8129 23.5847C29.8129 16.2202 23.3032 10.2603 15.2811 10.2603Z" fill="#F8F6EC"/>
<path d="M33.0349 32.495L19.599 32.515C12.1687 32.515 6.14111 26.9967 6.14111 20.194V7.89313L33.0349 32.495Z" fill="white"/>
<path opacity="0.3" d="M8.22339 12.2878C8.22339 21.639 16.5085 29.2041 26.7005 29.2041C27.5773 29.2041 28.4321 29.1439 29.265 29.0436L8.39874 9.96008C8.28914 10.7226 8.22339 11.5052 8.22339 12.2878Z" fill="white"/>
<path opacity="0.3" d="M33.0349 32.515L6.25073 7.99341C9.40697 12.3078 13.0454 16.6823 16.7496 20.2943C19.6428 23.1037 27.9937 29.3846 33.0349 32.515Z" fill="white"/>
<path opacity="0.3" d="M14.9304 15.9198L6.14111 7.89313V20.2141C6.14111 25.6522 9.99876 30.2675 15.3249 31.8929C13.0454 29.7859 11.6426 26.8963 11.6426 23.7258C11.6426 20.7158 12.892 17.9867 14.9304 15.9198Z" fill="white"/>
<path opacity="0.3" d="M26.8978 26.8964C24.6183 29.4448 21.1552 31.0903 17.2757 31.0903C14.6893 31.0903 12.2783 30.3679 10.2837 29.1238C12.6947 31.2308 15.9606 32.5351 19.5771 32.5351H33.035V32.5151L26.8978 26.8964Z" fill="white"/>
<path opacity="0.3" d="M6.93018 15.2576C6.93018 13.271 7.30279 11.3446 8.00418 9.57874L6.14111 7.89313V20.2141C6.14111 27.0168 12.1687 32.5352 19.599 32.5352H33.0569V32.5151L31.7199 31.291C29.7691 31.9332 27.6869 32.2743 25.4951 32.2743C15.2372 32.2542 6.93018 24.6489 6.93018 15.2576Z" fill="#F8F6EC"/>
<path d="M32.8155 34.903C33.758 34.6622 34.7443 35.1839 34.9854 36.0468C35.2484 36.9097 34.6785 37.8127 33.7141 38.0335C32.7716 38.2743 31.7853 37.7525 31.5442 36.8896C31.3031 36.0268 31.873 35.1438 32.8155 34.903ZM32.4648 33.6789C30.7771 34.1003 29.7688 35.6655 30.2291 37.2107C30.6675 38.7559 32.399 39.6789 34.0867 39.2575C35.7744 38.8361 36.7827 37.2508 36.3224 35.7258C35.884 34.1806 34.1525 33.2776 32.4648 33.6789Z" fill="white"/>
<path opacity="0.5" d="M34.7001 37.451C34.459 37.732 34.1303 37.9527 33.7357 38.053C32.7932 38.2938 31.8069 37.7721 31.5658 36.9092C31.3905 36.2671 31.6316 35.6249 32.1576 35.2437C31.8946 34.9025 31.6754 34.5213 31.4562 34.14C30.4042 34.8223 29.8781 36.0463 30.2288 37.2504C30.6672 38.7955 32.3987 39.7186 34.0864 39.2972C34.8755 39.0965 35.5111 38.655 35.9276 38.0731C35.5111 37.8724 35.0947 37.6718 34.7001 37.451Z" fill="white"/>
<path d="M6.77643 34.903C7.71892 34.6822 8.70524 35.2039 8.94635 36.0668C9.18745 36.9297 8.61757 37.8327 7.67508 38.0534C6.73259 38.2741 5.74627 37.7524 5.50517 36.8895C5.26406 36.0267 5.83394 35.1237 6.77643 34.903ZM6.42574 33.6789C4.73802 34.0802 3.72978 35.6655 4.16815 37.2106C4.60651 38.7557 6.33806 39.6788 8.02578 39.2774C9.71349 38.8761 10.7217 37.2909 10.3053 35.7457C9.845 34.2006 8.11345 33.2776 6.42574 33.6789Z" fill="white"/>
<path opacity="0.5" d="M8.63962 37.4712C8.39852 37.7521 8.06974 37.9729 7.67521 38.0532C6.73273 38.2739 5.7464 37.7522 5.5053 36.8893C5.32995 36.2471 5.59297 35.605 6.09709 35.2237C5.83407 34.8825 5.61489 34.5013 5.41762 34.12C4.36554 34.7822 3.81759 36.0063 4.16828 37.2103C4.60665 38.7555 6.33819 39.6786 8.02591 39.2773C8.81497 39.0966 9.47252 38.6351 9.86705 38.0532C9.42868 37.8926 9.03415 37.6919 8.63962 37.4712Z" fill="white"/>
<path d="M6.99588 7.03022C6.57944 7.03022 6.22874 6.70915 6.22874 6.32788C6.22874 4.6824 5.72462 3.43826 4.76021 2.61552C3.20401 1.27104 0.858744 1.41151 0.836826 1.41151C0.420377 1.45164 0.0477647 1.15064 0.00392799 0.769368C-0.0399087 0.388098 0.288867 0.0469614 0.705315 0.00682776C0.836826 0.00682776 3.73005 -0.193841 5.79037 1.55197C7.10548 2.65565 7.76303 4.261 7.76303 6.30782C7.76303 6.70915 7.43425 7.03022 6.99588 7.03022Z" fill="white"/>
</svg>

<svg width="37" height="40" fill="none" xmlns="http://www.w3.org/2000/svg"><path opacity=".2" d="M36.432 39.378c0-.341-7.65-.622-17.074-.622-9.425 0-17.075.28-17.075.622 0 .34 7.65.622 17.075.622 9.447 0 17.074-.281 17.074-.622z" fill="#5D5D5D"/><path d="M19.599 7.873c7.43 0 13.458 5.518 13.458 12.321v12.321H19.599c-7.43 0-13.458-5.518-13.458-12.321V7.874H19.6z" fill="#fff"/><path opacity=".3" d="M31.128 13.853c-1.118 1.184-1.797 2.729-1.797 4.414 0 2.509 1.49 4.696 3.704 5.88v-3.953c0-2.308-.68-4.475-1.907-6.341z" fill="#fff"/><path d="M25.846 9.298c-2.105 1.103-3.507 3.17-3.507 5.558 0 3.532 3.134 6.402 6.992 6.402 1.358 0 2.63-.362 3.704-.984v-.08c0-4.736-2.915-8.85-7.19-10.896z" fill="#fff"/><path opacity=".5" d="M15.281 10.26c-3.463 0-6.641 1.104-9.14 2.97v6.983c0 6.803 6.028 12.322 13.458 12.322h6.444c2.345-2.368 3.77-5.499 3.77-8.95 0-7.365-6.51-13.325-14.532-13.325z" fill="#F8F6EC"/><path d="M33.035 32.495l-13.436.02c-7.43 0-13.458-5.518-13.458-12.321v-12.3l26.894 24.601z" fill="#fff"/><path opacity=".3" d="M8.223 12.288c0 9.351 8.286 16.916 18.478 16.916.876 0 1.731-.06 2.564-.16L8.399 9.96a16.36 16.36 0 00-.176 2.328z" fill="#fff"/><path opacity=".3" d="M33.035 32.515L6.25 7.993c3.156 4.315 6.794 8.69 10.499 12.301 2.893 2.81 11.244 9.09 16.285 12.221z" fill="#fff"/><path opacity=".3" d="M14.93 15.92L6.141 7.893v12.321c0 5.438 3.858 10.053 9.184 11.679-2.28-2.107-3.682-4.997-3.682-8.167 0-3.01 1.249-5.74 3.287-7.806z" fill="#fff"/><path opacity=".3" d="M26.898 26.896c-2.28 2.549-5.743 4.194-9.622 4.194-2.587 0-4.998-.722-6.992-1.966 2.41 2.107 5.677 3.411 9.293 3.411h13.458v-.02l-6.137-5.619z" fill="#fff"/><path opacity=".3" d="M6.93 15.258a15.4 15.4 0 011.074-5.68L6.141 7.894v12.321c0 6.803 6.028 12.321 13.458 12.321h13.458v-.02l-1.337-1.224c-1.95.642-4.033.983-6.225.983C15.237 32.254 6.93 24.65 6.93 15.258z" fill="#F8F6EC"/><path d="M32.816 34.903c.942-.24 1.928.28 2.17 1.144.262.863-.307 1.766-1.272 1.986-.942.241-1.929-.28-2.17-1.143-.24-.863.329-1.746 1.271-1.987zm-.351-1.224c-1.688.421-2.696 1.986-2.236 3.532.439 1.545 2.17 2.468 3.858 2.047 1.687-.422 2.696-2.007 2.235-3.532-.438-1.545-2.17-2.448-3.857-2.047z" fill="#fff"/><path opacity=".5" d="M34.7 37.451a1.88 1.88 0 01-.964.602c-.943.24-1.93-.28-2.17-1.144a1.532 1.532 0 01.592-1.665c-.263-.341-.483-.723-.702-1.104-1.052.682-1.578 1.906-1.227 3.11.438 1.545 2.17 2.469 3.857 2.047.79-.2 1.425-.642 1.842-1.224-.417-.2-.833-.401-1.228-.622z" fill="#fff"/><path d="M6.776 34.903c.943-.22 1.93.3 2.17 1.164.241.863-.328 1.766-1.27 1.986-.943.221-1.93-.3-2.17-1.163-.242-.863.328-1.766 1.27-1.987zm-.35-1.224c-1.688.401-2.696 1.986-2.258 3.532.439 1.545 2.17 2.468 3.858 2.066 1.687-.4 2.696-1.986 2.28-3.531-.461-1.545-2.193-2.468-3.88-2.067z" fill="#fff"/><path opacity=".5" d="M8.64 37.471c-.241.281-.57.502-.965.582-.942.22-1.929-.3-2.17-1.164-.175-.642.088-1.284.592-1.665a7.285 7.285 0 01-.68-1.104c-1.051.662-1.6 1.886-1.249 3.09.439 1.545 2.17 2.469 3.858 2.067.789-.18 1.447-.642 1.841-1.224a8.43 8.43 0 01-1.227-.582z" fill="#fff"/><path d="M6.996 7.03c-.417 0-.767-.32-.767-.702 0-1.646-.504-2.89-1.469-3.712C3.204 1.27.86 1.412.837 1.412.42 1.452.047 1.15.004.769-.04.39.289.047.705.007c.132 0 3.025-.2 5.085 1.545 1.315 1.104 1.973 2.709 1.973 4.756 0 .401-.329.722-.767.722z" fill="#fff"/></svg>
